Faba/24x24/actions/mail-reply.svg

<?xml version="1.0" encoding="UTF-8" standalone="no"?>
<!-- Created with Inkscape (http://www.inkscape.org/) -->

<svg
   xmlns:dc="http://purl.org/dc/elements/1.1/"
   xmlns:cc="http://creativecommons.org/ns#"
   xmlns:rdf="http://www.w3.org/1999/02/22-rdf-syntax-ns#"
   xmlns:svg="http://www.w3.org/2000/svg"
   xmlns="http://www.w3.org/2000/svg"
   xmlns:sodipodi="http://sodipodi.sourceforge.net/DTD/sodipodi-0.dtd"
   xmlns:inkscape="http://www.inkscape.org/namespaces/inkscape"
   width="24"
   height="24"
   id="svg3495"
   version="1.1"
   inkscape:version="0.48.4 r9939"
   sodipodi:docname="media-playback-stop.svg">
  <defs
     id="defs3497">
    <clipPath
       clipPathUnits="userSpaceOnUse"
       id="clipPath3669">
      <path
         inkscape:connector-curvature="0"
         d="M 0,96 96,96 96,0 0,0 0,96 z"
         id="path3671" />
    </clipPath>
  </defs>
  <sodipodi:namedview
     id="base"
     pagecolor="#ffffff"
     bordercolor="#666666"
     borderopacity="1.0"
     inkscape:pageopacity="0.0"
     inkscape:pageshadow="2"
     inkscape:zoom="1"
     inkscape:cx="8.8041975"
     inkscape:cy="13.353093"
     inkscape:current-layer="layer1"
     showgrid="false"
     inkscape:grid-bbox="true"
     inkscape:document-units="px"
     inkscape:window-width="1364"
     inkscape:window-height="700"
     inkscape:window-x="0"
     inkscape:window-y="28"
     inkscape:window-maximized="1"
     inkscape:snap-bbox="true"
     inkscape:bbox-paths="true"
     inkscape:bbox-nodes="true"
     inkscape:snap-bbox-edge-midpoints="false"
     showguides="true"
     inkscape:guide-bbox="true">
    <inkscape:grid
       type="xygrid"
       id="grid3512"
       empspacing="4"
       visible="true"
       enabled="true"
       snapvisiblegridlinesonly="true"
       dotted="false" />
  </sodipodi:namedview>
  <metadata
     id="metadata3500">
    <rdf:RDF>
      <cc:Work
         rdf:about="">
        <dc:format>image/svg+xml</dc:format>
        <dc:type
           rdf:resource="http://purl.org/dc/dcmitype/StillImage" />
        <dc:title></dc:title>
      </cc:Work>
    </rdf:RDF>
  </metadata>
  <g
     id="layer1"
     inkscape:label="Layer 1"
     inkscape:groupmode="layer"
     transform="translate(1,-25)">
    <path
       sodipodi:nodetypes="ccccsacsscc"
       inkscape:connector-curvature="0"
       id="path4400-3"
       d="M 10,28.778973 1.663081,34.576821 10,40.374669 l 0,-3.221026 2.576822,0 c 1.758565,0 3.313285,1.125237 3.784706,2.576821 0.563848,1.736182 -1.85209,5.153643 -1.85209,5.153643 0,0 5.153643,-1.932616 5.153643,-6.119951 0,-4.024378 -2.577152,-6.814724 -6.442054,-6.764156 L 10,32 z"
       style="font-style:normal;font-variant:normal;font-weight:normal;font-stretch:normal;text-indent:0;text-align:start;text-decoration:none;line-height:normal;letter-spacing:normal;word-spacing:normal;text-transform:none;direction:ltr;block-progression:tb;writing-mode:lr-tb;text-anchor:start;baseline-shift:baseline;color:#bebebe;fill:#555555;fill-opacity:1;fill-rule:nonzero;stroke:none;stroke-width:0;marker:none;visibility:visible;display:inline;overflow:visible;enable-background:accumulate;font-family:Sans;-inkscape-font-specification:Sans" />
    <path
       style="font-style:normal;font-variant:normal;font-weight:normal;font-stretch:normal;text-indent:0;text-align:start;text-decoration:none;line-height:normal;letter-spacing:normal;word-spacing:normal;text-transform:none;direction:ltr;block-progression:tb;writing-mode:lr-tb;text-anchor:start;baseline-shift:baseline;opacity:0.1;color:#bebebe;fill:#ffffff;fill-opacity:1;fill-rule:nonzero;stroke:none;stroke-width:0;marker:none;visibility:visible;display:inline;overflow:visible;enable-background:accumulate;font-family:Sans;-inkscape-font-specification:Sans"
       d="M 10,27.778866 1.663081,33.576714 10,39.374562 l 0,-3.221026 2.576822,0 c 1.758565,0 3.313285,1.125237 3.784706,2.576821 0.563848,1.736182 -1.85209,5.153643 -1.85209,5.153643 0,0 5.153643,-1.932616 5.153643,-6.119951 0,-4.024378 -2.577152,-6.814724 -6.442054,-6.764156 l -3.221027,0 z"
       id="path3781"
       inkscape:connector-curvature="0"
       sodipodi:nodetypes="ccccsacsscc" />
  </g>
</svg>

<svg xmlns="http://www.w3.org/2000/svg" viewBox="0 0 24 24"><defs><clipPath><path d="m0 96h96v-96h-96v96"/></clipPath></defs><g transform="translate(1-25)" color="#bebebe"><path d="m10 28.779l-8.337 5.798 8.337 5.798v-3.221h2.577c1.759 0 3.313 1.125 3.785 2.577.564 1.736-1.852 5.154-1.852 5.154 0 0 5.154-1.933 5.154-6.12 0-4.02-2.577-6.815-6.442-6.764h-3.221z" fill="#555"/><path d="m10 27.779l-8.337 5.798 8.337 5.798v-3.221h2.577c1.759 0 3.313 1.125 3.785 2.577.564 1.736-1.852 5.154-1.852 5.154 0 0 5.154-1.933 5.154-6.12 0-4.02-2.577-6.815-6.442-6.764h-3.221z" opacity=".1" fill="#fff"/></g></svg>
